X: 4281
T: Lord Airley's    Reel
C: by Niel Gow
%R: reel
B: Niel Gow & Sons "A Fourth Collection of Strathspey Reels, etc." v.4 p.28 #1
Z: 2022 John Chambers <jc:trillian.mit.edu>
M: C|
L: 1/8
K: F
% - - - - - - - - - -
V: 1 staves=2
f |\
cFAF EG-Gf | cFAF cFAF | BdAc TG>ABd | cFAF CF-F :| c | fcfa dg-g>a | fcfa cfAF |
BdAc GABd | cFAF CF-Fc || fcfa dg-g>a | fcfa cfAF | BdAc GABd | cFAF CF-F |]
% - - - - - - - - - -
% Voice 2 preserves the staff layout in the book.
V: 2 clef=bass middle=d
z |\
f2f2 c2c2 | f2f2 f2f2 | e2f2 c2e2 | f2c2 F2F :| z | f2f2 g2g2 | f2f2 f2f2 |
e2f2 c2e2 | f2c2 F2F2 || f2f2 g2g2 | f2f2 f2f2 | e2f2 c2e2 | f2c2 F2F |]


